!!!OTL: ES ZOG EIN MATROSE
!!!ARE: Europa, Mitteleuropa, Deutschland
!!!SCT: B0603
!!!YEM: Copyright 1995, estate of Helmut Schaffrath.
**kern
*ICvox
*Ivox
*M3/4
*k[]
*C:
{4G
=1
4G
4.A
8G
=2
4G
4.A
8G
=3
4G
4F
4E
=4
2F}
{4F
=5
4B
4.B
8A
=6
4B
4.B
8A
=7
4A
4G
4F
=8
2E}
{4c
=9
8d
8c
4.B
8A
=10
8B
8A
4G}
{4E
=11
4.F
8E
8F
8A
=12
2G}
{4G
=13
4e
4d
4c
=14
8B
8A
4f}
{4A
=15
8G
8e
4e
4d
=16
2c}
==
!!!AGN: Staende -, Seemanns - Lied
!!!ONB: ESAC (Essen Associative Code) Database: BOEHME
!!!AMT: simple triple
!!!AIN: vox
!!!EED: Helmut Schaffrath
!!!EEV: 1.0
*-
